!!!OTL: IN DES GARTENS DUNKLER LAUBE
!!!ARE: Europa, Mitteleuropa, Deutschland, Wetterau
!!!SCT: E0112C
!!!YEM: Copyright 1995, estate of Helmut Schaffrath.
**kern
*ICvox
*Ivox
*M3/4
*k[b-e-]
*B-:
{8d
8e-
=1
8f
8b-
4b-
8d
8e-
=2
8f
8b-
4b-}
{8dd
8dd
=3
4.cc
8f
8g
8f
=4
4d
4r}
{8f
8f
=5
8ee-
8dd
8cc
8b-
8a
8g
=6
4g
4f}
{8f
8a
=7
8b-
8dd
4ff
8ee-
8cc
=8
4b-
4r}
{8f
8f
=9
8ee-
8dd
8cc
8b-
8a
8g
=10
4g
4f}
{8f
8a
=11
8b-
8dd
4ff
8ee-
8cc
=12
4b-
4r}
==
!!!AGN: erzaehlendes Volks - Lied, Sage, Liebe, Leid, Tod, Ballade ?
!!!ONB: ESAC (Essen Associative Code) Database: ERK1
!!!AMT: simple triple
!!!AIN: vox
!!!EED: Helmut Schaffrath
!!!EEV: 1.0
*-
